storage/app/icons/phosphoricons/bold/police-car-bold.svg

<svg xmlns="http://www.w3.org/2000/svg" fill="currentColor" viewBox="0 0 256 256"><path d="M240 100h-9l-26.28-45.92A20 20 0 0 0 187.36 44H68.64a20 20 0 0 0-17.36 10.08L25 100h-9a12 12 0 0 0 0 24h4v76a20 20 0 0 0 20 20h28a20 20 0 0 0 20-20v-20h80v20a20 20 0 0 0 20 20h28a20 20 0 0 0 20-20v-76h4a12 12 0 0 0 0-24M71 68h114l18.28 32H52.68Zm-7 128H44v-16h20Zm148 0h-20v-16h20Zm0-40H44v-32h168ZM92 20a12 12 0 0 1 12-12h48a12 12 0 0 1 0 24h-48a12 12 0 0 1-12-12"/></svg>

<svg xmlns="http://www.w3.org/2000/svg" viewBox="0 0 256 256" fill="currentColor"><path d="M240,100h-9L204.72,54.08A20,20,0,0,0,187.36,44H68.64A20,20,0,0,0,51.28,54.08L25,100H16a12,12,0,0,0,0,24h4v76a20,20,0,0,0,20,20H68a20,20,0,0,0,20-20V180h80v20a20,20,0,0,0,20,20h28a20,20,0,0,0,20-20V124h4a12,12,0,0,0,0-24ZM71,68H185l18.28,32H52.68ZM64,196H44V180H64Zm148,0H192V180h20Zm0-40H44V124H212ZM92,20A12,12,0,0,1,104,8h48a12,12,0,0,1,0,24H104A12,12,0,0,1,92,20Z"/></svg>
